assets/icons/modem-filled.svg

<?xml version="1.0" encoding="UTF-8" standalone="no"?>
<svg
   viewBox="0 0 24 24"
   version="1.1"
   id="svg10"
   sodipodi:docname="modem-filled.svg"
   inkscape:version="1.2 (1:1.2.1+202207142221+cd75a1ee6d)"
   width="24"
   height="24"
   xmlns:inkscape="http://www.inkscape.org/namespaces/inkscape"
   xmlns:sodipodi="http://sodipodi.sourceforge.net/DTD/sodipodi-0.dtd"
   xmlns="http://www.w3.org/2000/svg"
   xmlns:svg="http://www.w3.org/2000/svg"
   xmlns:rdf="http://www.w3.org/1999/02/22-rdf-syntax-ns#"
   xmlns:cc="http://creativecommons.org/ns#"
   xmlns:dc="http://purl.org/dc/elements/1.1/">
  <metadata
     id="metadata16">
    <rdf:RDF>
      <cc:Work
         rdf:about="">
        <dc:format>image/svg+xml</dc:format>
        <dc:type
           rdf:resource="http://purl.org/dc/dcmitype/StillImage" />
      </cc:Work>
    </rdf:RDF>
  </metadata>
  <defs
     id="defs14" />
  <sodipodi:namedview
     pagecolor="#ffffff"
     bordercolor="#666666"
     borderopacity="1"
     objecttolerance="10"
     gridtolerance="10"
     guidetolerance="10"
     inkscape:pageopacity="0"
     inkscape:pageshadow="2"
     inkscape:window-width="1920"
     inkscape:window-height="1016"
     id="namedview12"
     showgrid="false"
     inkscape:zoom="11.313708"
     inkscape:cx="-18.870912"
     inkscape:cy="15.512155"
     inkscape:window-x="0"
     inkscape:window-y="0"
     inkscape:window-maximized="1"
     inkscape:current-layer="svg10"
     inkscape:pagecheckerboard="0"
     inkscape:showpageshadow="2"
     inkscape:deskcolor="#d1d1d1">
    <inkscape:grid
       type="xygrid"
       id="grid841" />
    <inkscape:grid
       type="xygrid"
       id="grid829"
       dotted="true"
       spacingx="0.5"
       spacingy="0.5"
       empspacing="10" />
  </sodipodi:namedview>
  <path
     id="path993"
     style="fill:#808080;fill-rule:evenodd;stroke-width:2;stroke-linejoin:round"
     d="M 9.3808594 2.8945312 A 8.5 8.5 0 0 0 8 7.5 A 8.5 8.5 0 0 0 9.3808594 12.105469 L 10.207031 11.572266 A 7.5 7.5 0 0 1 9 7.5 A 7.5 7.5 0 0 1 10.207031 3.4277344 L 9.3808594 2.8945312 z M 11.900391 4.5234375 A 5.5 5.5 0 0 0 11 7.5 A 5.5 5.5 0 0 0 11.900391 10.476562 L 12.730469 9.9394531 A 4.5 4.5 0 0 1 12 7.5 A 4.5 4.5 0 0 1 12.730469 5.0605469 L 11.900391 4.5234375 z M 16.5 5.5 A 2 2 0 0 0 14.5 7.5 A 2 2 0 0 0 16 9.4335938 L 16 13.001953 L 6.5 13.001953 C 6.2500009 13.001953 6.0127572 13.000053 5.7871094 13.001953 C 5.1101672 13.007553 4.5365034 13.050103 4.0273438 13.304688 C 3.687902 13.474405 3.397337 13.767125 3.2304688 14.142578 C 3.0635992 14.518035 3 14.960292 3 15.501953 L 3 17 L 3 18.498047 C 3 19.039708 3.0635992 19.481965 3.2304688 19.857422 C 3.397337 20.232874 3.687902 20.525595 4.0273438 20.695312 C 4.5365034 20.949897 5.1101672 20.992447 5.7871094 20.998047 C 6.0127572 20.999947 6.2500009 20.998047 6.5 20.998047 L 17.5 20.998047 C 17.75 20.998047 17.987242 21.0019 18.212891 21 C 18.889832 20.9944 19.463497 20.94989 19.972656 20.695312 C 20.312099 20.525595 20.602661 20.232874 20.769531 19.857422 C 20.9364 19.481965 21 19.039708 21 18.498047 L 21 17 L 21 15.501953 C 21 14.960292 20.9364 14.518035 20.769531 14.142578 C 20.602661 13.767125 20.312099 13.474405 19.972656 13.304688 C 19.463497 13.050107 18.889832 13.005587 18.212891 13 C 17.987242 12.9981 17.75 13.001953 17.5 13.001953 L 17 13.001953 L 17 9.4335938 A 2 2 0 0 0 18.5 7.5 A 2 2 0 0 0 16.5 5.5 z M 15 17 L 18 17 L 18 18 L 15 18 L 15 17 z " />
</svg>

<svg width="24" height="24" xmlns="http://www.w3.org/2000/svg"><path style="fill:gray;stroke-width:2;stroke-linejoin:round" d="M9.38 2.895A8.5 8.5 0 0 0 8 7.5a8.5 8.5 0 0 0 1.38 4.605l.827-.533A7.5 7.5 0 0 1 9 7.5a7.5 7.5 0 0 1 1.207-4.072l-.826-.533zm2.52 1.628A5.5 5.5 0 0 0 11 7.5a5.5 5.5 0 0 0 .9 2.977l.83-.538A4.5 4.5 0 0 1 12 7.5a4.5 4.5 0 0 1 .73-2.44l-.83-.537zm4.6.977a2 2 0 0 0-2 2A2 2 0 0 0 16 9.434v3.568H6.5c-.25 0-.487-.002-.713 0-.677.006-1.25.048-1.76.303-.34.17-.63.462-.797.838-.166.375-.23.817-.23 1.359v2.996c0 .542.064.984.23 1.36.167.375.458.668.797.837.51.255 1.083.297 1.76.303.226.002.463 0 .713 0h11c.25 0 .487.004.713.002.677-.006 1.25-.05 1.76-.305.34-.17.63-.462.797-.838.166-.375.23-.817.23-1.359v-2.996c0-.542-.064-.984-.23-1.36a1.72 1.72 0 0 0-.797-.837c-.51-.255-1.083-.3-1.76-.305-.226-.002-.463.002-.713.002H17V9.434A2 2 0 0 0 18.5 7.5a2 2 0 0 0-2-2zM15 17h3v1h-3v-1z"/></svg>
